site/static/img/service-icon-default.svg

<svg height="50" viewBox="0 0 55 50" width="55" xmlns="http://www.w3.org/2000/svg"><path d="m190.871625 352.733309c-.801853 7.385564-1.272274 11.446086-1.409734 12.184643-.458202 2.538788-2.060381 3.80972-4.809592 3.80972-1.466245 0-2.646879-.461598-3.540372-1.384793-.893493-.923196-1.249363-2.101809-1.064555-3.531223.504022-2.954226 1.121067-7.028596 1.854189-12.221571.733123-5.191436 1.490684-10.61521 2.268099-16.269783.780471-5.654573 1.284493-9.288886 1.513593-10.904478.273394-1.153995 1.018736-1.99718 2.23297-2.528018 1.214235-.530837 2.530802-.772407 3.951227-.726247 2.291009.04616 3.963445 1.523273 5.01731 4.431339l9.003664 26.655733c.045821.230799.137461.530838.274922.900116.13746.369278.2291.623157.274921.761636l.481111-1.315553c2.153549-5.262215 5.544242-14.263372 10.17208-27.001932l.274921-.484678c.137461-.369278.239792-.635466.308523-.797025.06873-.161559.20619-.415438.412381-.761637.206191-.346198.40169-.623157.584971-.830876s.412382-.438517.685775-.692396c.276449-.253879.584971-.461598.928623-.623157.343651-.161559.697994-.26465 1.066082-.310809 1.098157-.09232 1.922921-.1154 2.47429-.06924 2.014561.230799 3.297526.877036 3.847368 1.938711.320741 1.061674.71174 3.311194 1.168414 6.750098.458202 3.438903 1.145505 9.093476 2.061908 16.96218.916404 7.870242 1.603706 13.698683 2.061908 17.483785.091641 1.477113-.331432 2.608028-1.270746 3.391205-.939314.786255-2.097037 1.178613-3.470115 1.178613-2.888198 0-4.468995-1.270932-4.742388-3.80972-.549842-5.168357-1.397516-14.146434-2.54302-26.931154l-9.484777 25.824858c-1.008044 2.307989-2.863761 3.438903-5.567152 3.391205-.962223-.044621-1.751858-.287729-2.371957-.726247-.617045-.438518-1.041646-.864727-1.270747-1.280165s-.549842-1.109373-.962223-2.07719l-8.660014-25.480198c-.366561 2.677268-.950005 7.708683-1.751858 15.094248z" fill="none" stroke="#e6232c" stroke-linecap="round" stroke-linejoin="round" stroke-width="1.4" transform="translate(-179 -320)"/></svg>

<?xml version="1.0" encoding="UTF-8"?>
<svg width="55px" height="50px" viewBox="0 0 55 50" version="1.1" xmlns="http://www.w3.org/2000/svg" xmlns:xlink="http://www.w3.org/1999/xlink">
    <g id="All" stroke="none" stroke-width="1" fill="none" fill-rule="evenodd" stroke-linecap="round" stroke-linejoin="round">
        <g id="Services-Index" transform="translate(-179.000000, -320.000000)" stroke="#E6232C" stroke-width="1.39999998">
            <path d="M190.871625,352.733309 C190.069772,360.118873 189.599351,364.179395 189.461891,364.917952 C189.003689,367.45674 187.40151,368.727672 184.652299,368.727672 C183.186054,368.727672 182.00542,368.266074 181.111927,367.342879 C180.218434,366.419683 179.862564,365.24107 180.047372,363.811656 C180.551394,360.85743 181.168439,356.78306 181.901561,351.590085 C182.634684,346.398649 183.392245,340.974875 184.16966,335.320302 C184.950131,329.665729 185.454153,326.031416 185.683253,324.415824 C185.956647,323.261829 186.701989,322.418644 187.916223,321.887806 C189.130458,321.356969 190.447025,321.115399 191.86745,321.161559 C194.158459,321.207719 195.830895,322.684832 196.88476,325.592898 L205.888424,352.248631 C205.934245,352.47943 206.025885,352.779469 206.163346,353.148747 C206.300806,353.518025 206.392446,353.771904 206.438267,353.910383 L206.919378,352.59483 C209.072927,347.332615 212.46362,338.331458 217.091458,325.592898 L217.366379,325.10822 C217.50384,324.738942 217.606171,324.472754 217.674902,324.311195 C217.743632,324.149636 217.881092,323.895757 218.087283,323.549558 C218.293474,323.20336 218.488973,322.926401 218.672254,322.718682 C218.855535,322.510963 219.084636,322.280165 219.358029,322.026286 C219.634478,321.772407 219.943,321.564688 220.286652,321.403129 C220.630303,321.24157 220.984646,321.138479 221.352734,321.09232 C222.450891,321 223.275655,320.97692 223.827024,321.02308 C225.841585,321.253879 227.12455,321.900116 227.674392,322.961791 C227.995133,324.023465 228.386132,326.272985 228.842806,329.711889 C229.301008,333.150792 229.988311,338.805365 230.904714,346.674069 C231.821118,354.544311 232.50842,360.372752 232.966622,364.157854 C233.058263,365.634967 232.63519,366.765882 231.695876,367.549059 C230.756562,368.335314 229.598839,368.727672 228.225761,368.727672 C225.337563,368.727672 223.756766,367.45674 223.483373,364.917952 C222.933531,359.749595 222.085857,350.771518 220.940353,337.986798 L211.455576,363.811656 C210.447532,366.119645 208.591815,367.250559 205.888424,367.202861 C204.926201,367.15824 204.136566,366.915132 203.516467,366.476614 C202.899422,366.038096 202.474821,365.611887 202.24572,365.196449 C202.016619,364.781011 201.695878,364.087076 201.283497,363.119259 L192.623483,337.639061 C192.256922,340.316329 191.673478,345.347744 190.871625,352.733309 Z" id="Stroke-1"></path>
        </g>
    </g>
</svg>
